svg/design/magic_hat_2_line.svg

<?xml version="1.0" encoding="UTF-8"?>
<svg width="24px" height="24px" viewBox="0 0 24 24" version="1.1" xmlns="http://www.w3.org/2000/svg" xmlns:xlink="http://www.w3.org/1999/xlink">
    <title>magic_hat_2_line</title>
    <g id="Icon" stroke="none" stroke-width="1" fill="none" fill-rule="evenodd">
        <g id="Design" transform="translate(-864.000000, -384.000000)">
            <g id="magic_hat_2_line" transform="translate(864.000000, 384.000000)">
                <path d="M24,0 L24,24 L0,24 L0,0 L24,0 Z M12.5935,23.2578 L12.5819,23.2595 L12.5109,23.295 L12.4919,23.2987 L12.4767,23.295 L12.4057,23.2595 C12.3958,23.2564 12.387,23.259 12.3821,23.2649 L12.378,23.2758 L12.3609,23.7031 L12.3659,23.7235 L12.3769,23.7357 L12.4805,23.8097 L12.4953,23.8136 L12.5071,23.8097 L12.6107,23.7357 L12.6233,23.7197 L12.6267,23.7031 L12.6096,23.2758 C12.6076,23.2657 12.601,23.2593 12.5935,23.2578 Z M12.8584,23.1453 L12.8445,23.1473 L12.6598,23.2397 L12.6499,23.2499 L12.6472,23.2611 L12.6651,23.6906 L12.6699,23.7034 L12.6784,23.7105 L12.8793,23.8032 C12.8914,23.8069 12.9022,23.803 12.9078,23.7952 L12.9118,23.7812 L12.8777,23.1665 C12.8753,23.1546 12.8674,23.147 12.8584,23.1453 Z M12.143,23.1473 C12.1332,23.1424 12.1222,23.1453 12.1156,23.1526 L12.1099,23.1665 L12.0758,23.7812 C12.0751,23.7927 12.0828,23.8019 12.0926,23.8046 L12.1083,23.8032 L12.3092,23.7105 L12.3186,23.7024 L12.3225,23.6906 L12.3404,23.2611 L12.3372,23.2485 L12.3278,23.2397 L12.143,23.1473 Z" id="MingCute" fill-rule="nonzero"></path>
                <path d="M12,6.99997 C14.0352,6.99997 15.9251,7.35157 17.3437,7.9595 C18.0512,8.26271 18.6876,8.64943 19.1617,9.1298 C19.64,9.61446 20,10.2476 20,11 C20,11.7523 19.64,12.3855 19.1617,12.8701 C18.6876,13.3505 18.0512,13.7372 17.3437,14.0404 C17.2324,14.0881 17.1182,14.1342 17.0013,14.1787 C17.020575,15.56425 17.259675,16.95115 17.4954281,17.9937578 L17.6119926,18.4847705 L17.6119926,18.4847705 L17.7218,18.9088 L17.7218,18.9088 C17.9642,19.8082 17.5711,20.906 16.52,21.2669 C16.4107294,21.3044176 16.2923073,21.3432543 16.1651406,21.3825804 L15.7578145,21.5011972 C14.8201993,21.7577862 13.5303294,22 12,22 C10.4696859,22 9.17982543,21.7577862 8.242196,21.5011972 L7.83486146,21.3825804 C7.70769145,21.3432543 7.58926529,21.3044176 7.47999,21.2669 C6.42886,20.906 6.03583,19.8082 6.27817,18.9088 L6.38798945,18.4847705 C6.65452266,17.4134875 6.9762,15.795175 6.99874,14.1787 C6.88181,14.1342 6.76762,14.0881 6.65633,14.0404 C5.94885,13.7372 5.31243,13.3505 4.83835,12.8701 C4.36003,12.3855 4,11.7523 4,11 C4,10.2476 4.36003,9.61446 4.83835,9.1298 C5.31243,8.64943 5.94885,8.26271 6.65633,7.9595 C8.07486,7.35157 9.96482,6.99997 12,6.99997 Z M15.0175,14.727 C14.0819,14.9045 13.0607,15 12,15 C10.9393,15 9.91814,14.9045 8.98254,14.727 C8.932635,15.7895062 8.78191664,16.8176508 8.61143812,17.6933626 L8.49574781,18.2532922 C8.47627468,18.3424182 8.45677996,18.4293383 8.43737484,18.5138906 L8.32290881,18.9914957 C8.28570484,19.1403625 8.24974875,19.2784625 8.21593,19.4045 L8.55948105,19.5122435 C9.36439907,19.7497298 10.5560467,20 12,20 C13.4439533,20 14.6356084,19.7497298 15.4405415,19.5122435 L15.7841,19.4045 L15.7841,19.4045 L15.7318717,19.2065588 L15.7318717,19.2065588 L15.6204712,18.7602824 C15.5822392,18.6009727 15.5432052,18.4315441 15.5042583,18.2532922 L15.3885687,17.6933626 C15.2180945,16.8176508 15.0673938,15.7895062 15.0175,14.727 Z M12,8.99997 C10.1692,8.99997 8.55915,9.31995 7.44417,9.79779 C6.8849,10.0375 6.4962,10.2972 6.26184,10.5347 C6.06049375,10.7386625 6.01103219,10.8836719 6.00181283,10.9677184 L6,11 C6,11.076 6.03173,11.2321 6.26184,11.4653 C6.4962,11.7027 6.8849,11.9625 7.44417,12.2021 C8.55915,12.68 10.1692,13 12,13 C13.8308,13 15.4409,12.68 16.5558,12.2021 C17.1151,11.9625 17.5038,11.7027 17.7382,11.4653 C17.9683,11.2321 18,11.076 18,11 C18,10.9239 17.9683,10.7678 17.7382,10.5347 C17.5038,10.2972 17.1151,10.0375 16.5558,9.79779 C15.4409,9.31995 13.8308,8.99997 12,8.99997 Z M12,9.99997 C13.6569,9.99997 15,10.4477 15,11 C15,11.5523 13.6569,12 12,12 C10.3431,12 9,11.5523 9,11 C9,10.4477 10.3431,9.99997 12,9.99997 Z M9.31770948,1.67252303 L9.51496644,1.28110608 C9.6255456,1.06841268 9.67982665,1.04713342 9.80195682,1.26874462 L9.88437,1.43127 C10.3547,2.40957 11.0955,3.23078 12.0179,3.79646 C12.2801727,3.95730545 12.325586,4.00263851 12.0953117,4.15452529 L12.0179,4.20351 C11.1723667,4.72205 10.4794278,5.45530618 10.0075359,6.32745468 L9.81027356,6.71886776 C9.6996944,6.93155449 9.64541335,6.95284327 9.52328318,6.73122898 L9.44087,6.5687 C9.00976167,5.671925 8.35129097,4.90714924 7.53409531,4.35019657 L7.17644984,4.11907917 C7.03788491,4.02025831 7.04565399,3.96697122 7.2299116,3.8454508 L7.30734,3.79646 C8.1528275,3.27792 8.84582979,2.54466382 9.31770948,1.67252303 Z M15.9093961,3.15719108 L15.8334,3.28751 C15.5194444,3.86723444 15.0448568,4.36422506 14.4566933,4.73237376 L14.2309,4.8643 C14.0457111,4.96509222 14.0178062,5.0020816 14.1162728,5.06890385 L14.2309,5.13567 C14.8467222,5.47087889 15.3548506,5.94070111 15.7082289,6.49902155 L15.9093596,6.84276446 C15.9859867,6.95836307 16.026867,6.94850032 16.0973793,6.83481538 L16.1666,6.71245 L16.1666,6.71245 C16.4805556,6.13272556 16.9551432,5.63573494 17.5433067,5.26759326 L17.7691,5.13567 C17.9543667,5.03483889 17.9822889,4.99789531 17.883779,4.93107652 L17.7691,4.8643 C17.0763,4.48718 16.5198,3.9397 16.1666,3.28751 L16.0973874,3.16514016 C16.026892,3.05145116 15.9860469,3.04158842 15.9093961,3.15719108 L15.9093961,3.15719108 Z" id="形状" fill="#09244B"></path>
            </g>
        </g>
    </g>
</svg>

<svg xmlns="http://www.w3.org/2000/svg" width="24" height="24"><g fill="none" fill-rule="evenodd"><path d="M24 0v24H0V0h24ZM12.594 23.258l-.012.002-.071.035-.02.004-.014-.004-.071-.036c-.01-.003-.019 0-.024.006l-.004.01-.017.428.005.02.01.013.104.074.015.004.012-.004.104-.074.012-.016.004-.017-.017-.427c-.002-.01-.009-.017-.016-.018Zm.264-.113-.014.002-.184.093-.01.01-.003.011.018.43.005.012.008.008.201.092c.012.004.023 0 .029-.008l.004-.014-.034-.614c-.003-.012-.01-.02-.02-.022Zm-.715.002a.023.023 0 0 0-.027.006l-.006.014-.034.614c0 .012.007.02.017.024l.015-.002.201-.093.01-.008.003-.011.018-.43-.003-.012-.01-.01-.184-.092Z"/><path fill="#09244B" d="M12 7c2.035 0 3.925.352 5.344.96.707.303 1.344.69 1.818 1.17.478.484.838 1.118.838 1.87s-.36 1.386-.838 1.87c-.474.48-1.11.867-1.818 1.17a8.976 8.976 0 0 1-.343.139c.02 1.385.259 2.772.494 3.815l.117.49.11.425c.242.9-.15 1.997-1.202 2.358-.11.037-.228.076-.355.116l-.407.118C14.82 21.758 13.53 22 12 22c-1.53 0-2.82-.242-3.758-.499l-.407-.118c-.127-.04-.246-.079-.355-.116-1.051-.361-1.444-1.459-1.202-2.358l.11-.424c.267-1.072.588-2.69.61-4.306a8.95 8.95 0 0 1-.342-.139c-.707-.303-1.344-.69-1.818-1.17C4.36 12.386 4 11.752 4 11s.36-1.386.838-1.87c.474-.48 1.11-.867 1.818-1.17C8.075 7.352 9.965 7 12 7Zm3.018 7.727C14.082 14.905 13.06 15 12 15c-1.06 0-2.082-.095-3.017-.273-.05 1.063-.201 2.09-.372 2.966l-.115.56-.059.26-.114.478a24.75 24.75 0 0 1-.107.413l.343.108C9.364 19.75 10.556 20 12 20c1.444 0 2.636-.25 3.44-.488l.344-.108-.052-.197-.112-.447a25.49 25.49 0 0 1-.116-.507l-.115-.56a20.845 20.845 0 0 1-.371-2.966ZM12 9c-1.83 0-3.44.32-4.556.798-.56.24-.948.5-1.182.737-.202.204-.251.349-.26.433L6 11c0 .076.032.232.262.465.234.238.623.498 1.182.737C8.56 12.68 10.17 13 12 13c1.83 0 3.44-.32 4.556-.798.56-.24.948-.5 1.182-.737.23-.233.262-.389.262-.465 0-.076-.032-.232-.262-.465-.234-.238-.623-.498-1.182-.737C15.44 9.32 13.83 9 12 9Zm0 1c1.657 0 3 .448 3 1s-1.343 1-3 1-3-.448-3-1 1.343-1 3-1ZM9.318 1.673l.197-.392c.11-.213.165-.234.287-.012l.082.162a5.64 5.64 0 0 0 2.134 2.365c.262.161.308.207.077.359l-.077.049a5.638 5.638 0 0 0-2.01 2.123l-.198.392c-.11.213-.165.234-.287.012l-.082-.162A5.643 5.643 0 0 0 7.534 4.35l-.358-.23c-.138-.1-.13-.153.054-.275l.077-.049a5.639 5.639 0 0 0 2.01-2.123Zm6.591 1.484-.076.13a3.918 3.918 0 0 1-1.376 1.445l-.226.132c-.185.101-.213.138-.115.205l.115.067a4.003 4.003 0 0 1 1.477 1.363l.201.344c.077.115.118.106.188-.008l.07-.123a3.918 3.918 0 0 1 1.376-1.444l.226-.132c.185-.101.213-.138.115-.205l-.115-.067a3.96 3.96 0 0 1-1.602-1.576l-.07-.123c-.07-.114-.111-.123-.188-.008Z"/></g></svg>
